X:1
T:Io son ferito hai lasso
T:Giovanni Francesco Capuano
T:Source : Primo libro delle villanelle a 3 voci---Venetia---Figlio d'A.Gardano---1574. Editor : André Vierendeels (31/03/16). 
T:Notes : Original clefs : C1, C3, C4 Editorial accidentals above the staff "Alla napolitana" Music by composers from Bari, collected by G.de Antiquis
T:Io son ferito hai lasso
T:©
T:©
T:©
T:©
C:Giovanni Francesco Capuano
Z:©
%%score [ 1 2 3 ]
L:1/8
Q:1/4=90
M:4/4
K:C
V:1 treble nm="Soprano" snm="S"
V:2 treble nm="Alto" snm="A"
V:3 treble-8 nm="Tenor" snm="T"
V:1
 z8 | z8 | A4 A2 A2 | G2 G2 _B4 | A6 A2 | G3 F E4 |[M:2/4] D4 ::[M:3/4] A2 A2 A2 |[M:4/4] A4 A4 | %9
w: ||1)Io son fe-|ri- to hai|las- so'e|1)chi mi die-|de,|poi che chie-|der soc-|
w: ||2)E sen- za'in-|di- cio'al mal|non si|2)da _ fe-|de,|ne get- ta|san- gue|
w: ||3)Io pas- mo'e|mo- ro'il col-|po non|3)si _ ve-|de,|e ben che'l|mal ogn'|
w: ||4)Che fia tor-|nar a lei|cru- del|4)par- * ti-|to,|e pur d'an-|dar- ci'A-|
 G4 F2 E2- | E2 D2 E2 E2 | A2 A2 G4 |1[M:2/4] F4 :|2 F4 |:[M:4/4] z2 F2 G4 | A4 B2 B2 | A4 G4 | %17
w: cor- so non|_ mi gio- va,|1) mi gio-|va,|va,|ac- cu-|sar pur vor-|rei ma|
w: la mia pia-|* ga no- va,|2)pia- ga no-|va,|va,|pe- ro|l'ac- cu- sa-|star non|
w: hor piu si|_ ri- no- va,|3)si ri- no-|va,|va,|la mia|ne- mi- c'ar-|ma- ta|
w: mor mi fa-|* ce'ar- di- to,|4)fa- ce'ar- di-|to,|to,|che sol|mi po sa-|nar chi|
"^b" F4 B2 A2- | A2 G2 A4 | z2 F2 G4 |"^b""^b" A4 B2 B2 | A2 A2 G3 F | E4 D4 :| %23
w: 1)non ho pro-|* * va,|ac- cu-|sar pur vor-|rei ma non ho|pro- va.|
w: 2)po- te'à pro-|* * va,|pe- ro|l'ac- cu- sa-|star non po- te'à|pro- va|
w: 3)non si tro-|* * va,|la mia|ne- mi- c'ar-|ma- ta non si|tro- va.|
w: 4)fa- ce'ar- di-|* * to,|che sol|mi po sa-|nar chi m'ha fe-|ri- to.|
V:2
 z4 E4 | E2 E2 D2 D2 | F2 E2 z2 F2 | F2 E2 D3 E | F6 F2 | E2 D4 ^C2 |[M:2/4] D4 :: %7
w: 1)Io|son fe- ri- to'hai|las- so, io|son fe- ri- to'hai|las- so'e|1)chi mi die-|de,|
w: 2)E|sen- za'in- di- cio|al mal, e|sen- za'in- di- cio'al|mal non|2)si da fe-|de,|
w: 3)Io|pas- mo'e mo- ro'il|col- po, io|pas- mo'e mo- ro'il|col- po|3)non si ve-|de,|
w: 4)Che|fia tor- nar a|le- i, che|fia tor- nar a|lei cru-|4)del par- ti-|to,|
[M:3/4] E2 F2 E2 |[M:4/4] F4 E2 E2- | E2 D2 C2 B,2 | A,2 A4 G2- | G2 F4 E2 |1[M:2/4] F4 :|2 F4 |: %14
w: poi che chie-|der soc- cor-|* so non mi|gio- va non|1) mi gio-|va,|va,|
w: ne get- ta|san- gue la|_ mia pia- ga|no- va, pia-|2) ga no-|va,|va,|
w: e ben che'l|mal ogn- hor|_ piu si ri-|no- va, si|3) ri- no-|va,|va,|
w: e pur d'an-|dar ci'A- mor|_ mi fa- ce'ar-|di- to, mi|4)fa- ce'ar- di-|to,|to,|
[M:4/4] z8 | C4 D3 E | F2 F2 E4 | z4 z2 C2 | D3 E F2 E2- | E2 D4 ^C2 | D6 E2 | F4 E2 D2- | %22
w: |ac- cu- sar|pur vor- rei,|ac-|cu- sar pur vor-||rei, ma|non ho pro-|
w: |pe- ro l'ac-|cu- s- star|pe-|ro l'ac- cu- sa-||star non|po- te'à pro-|
w: |la mia ne-|mi- c'ar- ma-|la|mia ne- mi- c'ar-|* ma- *|ta non|si tro- *|
w: |che sol mi|po sa- nar|che|sol mi po sa-||nar chi|m'ha fe- ri-|
 D2 ^C2 D4 :| %23
w: * * va.|
w: * * va.|
w: * * va.|
w: * * to|
V:3
 A4 A2 A2 |"^b" G2 G2 B4 | A4 F4 | c2 c2 G2 G2 | d6 D2 | G2 G2 A4 |[M:2/4] D4 ::[M:3/4] A2 d2 ^c2 | %8
w: 1)Io son fe-|ri- to hai|las- so'io|son fe- ri- 'hai|las- so'e|1)chi mi die-|de,|poi che chie-|
w: 2)E sen- za'in-|di- cio al|mal, e|sen- za'in- di- cio'al|mal non|2)si da fe-|de,|ne get- ta|
w: 3)Io pas- mo'e|mo- ro'il col-|po, io|pas- mo'e mo- ro'il|col- po|3)non si ve-|de,|e ben che'l|
w: 4)Che fia tor-|nar a le-|i, che|fia tor- nar a|le- i,|4)del par- ti-|to,|e pur d'an-|
[M:4/4] d4 A2 c2- | c2 B2 A2 G2 | F4 E4 | F4 c4 |1[M:2/4] F4 :|2 F2 F2 |: %14
w: der soc- cor-|* so non mi|gio- va,|1)mi gio-|va,|va, ac-|
w: san- gue la|_ mia pia- ga|no- va,|2)ga no-|va,|va, pe-|
w: mal ogn- hor|_ piu si ri-|no- va,|3)ri- no-|va,|va, la|
w: dar ci'A- mor|_ mi fa- ce'ar-|di- to,|4)ar- di-|to,|to, che|
[M:4/4]"^b""^b" G2 A2 B2 B2 | A4 G4 | F4 z4 | F4 G2 A2 |"^b""^b" B2 B2 A2 A2 | G2 F2 E4 | %20
w: cu- sar pur vor-|re- *|i,|1)ac- cu- sar|pur vor- rei ma|non ho pro-|
w: ro l'ac- cu- sa-||star|2)non po- te'à|pro- va, pe- ro|l'ac- cu- sa-|
w: mia ne- mi- c'ar-|ma- *|ta,|3)non si tro-|* va, la mia|ne- mi- c'ar-|
w: sol mi po sa-||nar,|4)che sol mi|po sa- nar, chi|m'ha fe- ri-|
 D2 D2 G4 |"^b" D4 G2 B2 | A4 D4 :| %23
w: va, ma non|ho pro- *|* va.|
w: star, non po-|te'à pro- *|* va.|
w: ma- ta non|si tro- *|* va.|
w: to, chi m'ha|fe- ri- *|* to.|

